X:1
T:Rio Grande
T:Rio Grande
T:Shanty
%%score [ 1 2 3 4 ]
L:1/8
Q:1/4=70
M:6/8
K:Eb
V:1 treble-8 nm="Soprano"
V:2 treble-8 nm="Alto"
V:3 bass nm="Tenor"
V:4 bass nm="Bass"
V:1
 z | z6 | z6 | z2 e e2 e | e3- e2 z | z6 | z3 z e e | e e c d d2 | e3- e z z || z2 e e2 d | %10
w: |||A- way Ri-|o! _||And we're|bound for the Ri- o|Grande. _|A- way to|
 B B2- B2 z | e3- e2 e | e e2 z2 e | (ed) c e2 e | e e d e e e | e3/2 e/ e d d2 | e3- e2 z |] %17
w: Ri- o! _|Oh, _ you|Ri- o! So|fare _ you well, my|bon- nie young girl, for we're|bound for the Ri- o|Grande. _|
V:2
 G | G G G G F E | (F G) F E2 G | (B3- BG) c | B3- B2 B | c d e B A G | A B A G E F | G G E F B2 | %8
w: 1.Oh,|say, were you ev- er in|Ri- * o Grande? A-|way _ _ Ri-|o! _ It's|there that the riv- ers run|down gold- en sand, And we're|bound for the Ri- o|
w: 2.So|pack up your don- key and|get un- der way, *||* * The|girls we are leav- ing can|have our half pay, * *||
w: 3.You|Liv- er- pool la- dies, we'd|have you to know, *||* * We're|bound to the South- 'ard, come|on, let us go, * *||
 E3- E E F || G3- G2 F | F E2- E2 z | B3- B2 G | c B2 z2 B | (cd) e (BA) G | A B A G E F | %15
w: Grande. _ And a-|way _ to|Ri- o! _|Oh, _ you|Ri- o! So|fare _ you well, _ my|bon- nie young girl, for we're|
w: |||||||
w: |||||||
 G3/2 G/ G F B2 | E3- E2 z |] %17
w: bound for the Ri- o|Grande. _|
w: ||
w: ||
V:3
 z | z6 | z6 | z2 G, (G,E,) A, | G,3- G,2 z | z6 | z3 z =A, A, | B, B, G, _A, A,2 | %8
w: |||A- way _ Ri-|o! _||And we're|bound for the Ri- o|
 G,3- G, G, A, || B,3- B,2 A, | A, G,2- G,2 z | G,3- G,2 E, | A, G,2 z2 G, | A,2 A, G,2 B, | %14
w: Grande. _ And a-|way _ to|Ri- o! _|Oh, _ you|Ri- o! So|fare you well, my|
 C C B, C =A, A, | B,3/2 B,/ B, _A, A,2 | G,3- G,2 z |] %17
w: bon- nie young girl, for we're|bound for the Ri- o|Grande. _|
V:4
 z | z6 | z6 | z2 E, E,2 E, | E,3- E,2 z | z6 | z3 z C, _C, | B,, B,, B,, B,, B,,2 | %8
w: |||A- way Ri-|o! _||And we're|bound for the Ri- o,|
 E,2 C, B,, z z || z2 E, E,2 B,, | E, E,2- E,2 z | E,3- E,2 E, | E, E,2 z2 E, | A,,2 A,, E,2 E, | %14
w: Ri- o Grande.|A- way to|Ri- o! _|Oh _ you|Ri- o! So|fare you well, my|
 F, F, B,, C, C, _C, | B,,3/2 B,,/ B,, B,, B,,2 | E,3- E,2 z |] %17
w: bon- nie young girl, for we're|bound for the Ri- o|Grande. _|

